X:19
T:Hanter-dro
Z:midi2abc
M:2/4
L:1/8
R:Hanter-dro
Q:1/4=200
K:G
G2 Bc|d2 e2|d4|g2 fe|d2 B2|c2 d2|
G2 Bc|d2 e2|d4|g2 fe|d2 B2|d4|
|:d2 ed|G2 A2|B2 G2|AB c2|
B2 G2|A2 A2|d2 ed|G2 A2|
B2 G2|AB c2|B2 A2|G4:|
<end>
<start>
